X:1
T: The Mountain Lark
C: R-63
M: C|
Z:
R: reel
K: Em
"Em"E2BA Bdef| "D"deBd AFDF| "Em"E2BA Bdef| "Bm"dBAF "Em"BEE z|
"Em"E2BA Bdef| "D"deBd AFDF| "Em"E2BA Bdef| "D"ge"Bm"fd "Em"Bee z:|
|:\
"Em"eBBB efge| "D"fdad bdad| "Em"eBBB efge| "Bm"fedf "Em"e2ef|
"Em"eBBB efge| "D"fdad bdad| "Em"gafg egfe| "Bm"dBAF "Em"BEEz:|
%
